X:65
T:Table Music - Bourree
C:Telemann, G.P.
M:2/2
L:1/8
Q:1/2=88
K:G
|:D|GG AB cd|ef g2 dG|AA Bc de|fg a2 eA|
Bd ef ga|bg f2 dB|cA BG FE|G4 G:|

